X:1
T:Heartbroken Bear  Teddy Bear - Rhythm Tengoku The Best  Music
T:Blue Bear - Rhythm Paradise
%%score { 1 | 2 } { 3 | 4 }
L:1/8
Q:1/4=105
M:3/4
K:E
V:1 treble nm="Piano" snm="Pno."
V:2 treble 
V:3 bass nm="Piano" snm="Pno."
V:4 bass 
V:1
 [eg] z [eg] z [eg] z | [eg] z [ef] z [eg] z | [eg] z [df] z [ce] z | [=cd] z ^A2 c2 | %4
 c z d z e z | d z z2 g z | g z z2 f z | ed c z z2 | A z g z f z | d z e z2 f | d z z2 B z | G6 | %12
 c z d z e z | d z z2 g z | g z c' z f z | ed c z z2 | e z g z f z | d z e z f z | d z z e d z | %19
 c z z4 | [ac'] z c'[gb] [fa] z | [ac'] z [bd'] z z [c'f'] | [ege'] z [cf] z [cec'] z | g z z4 | %24
 [efa] z z2 [gb] z | [ac'] z z2 c' z | [=c'd'] z z2 [^a^c'] z | [fg=c']2 g/d/[gc']/f/ c'/f'/g'- | %28
 g'6 | F2 G2 ^A2 | =c2 e2 dB | [ceg][Bce] [Bce][Be] [Bce][Bce] | [Bceg]B [Bce]B [Bc]B | %33
 [ceb][Bc] [Ace][Ace] [Ace][FAc] | [cea][Ac] [cea][FA] [Acf][Acf] | [cea] z [Ac] z [ce] z | %36
 [=cdg] z [Bcdb] z [Aca] z | [cea] z [Ac]E c z | [=cdg]c [cd]c [F^Ac]c | [ee'] z [dd'] z [ec'] z | %40
 [ceg]2 g4 | [eb][Ac] [ea][ce] [efb]c | c' z [Ff]4 | [=cg]c cc z2 | [=cf]2 d z z2 | d z z2 cG | %46
 [ce] z z4 | e z d z C z | [=cd] z ^A z [DGc]2- | [DGc]2 z4 | g4- g<c'- | c'6- | c'6 |] %53
V:2
 z6 | z6 | z6 | z6 | [CE] z [CD] z [CE] z | D z D z D z | C z [CD] z [CE] z | C z C z z2 | C z z4 | %9
 D z E z z2 | [CG] z [CF] z [CE] z | [=CD] z [CE] z C z | [CE] z [CD] z [CE]C | D z D z D z | %14
 C z [CD] z [CE] z | C z C z C z | [CE] z [CE] z F z | F z [EG] z [DF] z | D z [CE] z FC | %19
 [CE] z [CF] z [CEG] z | [CFA]C [CFA][CFA] [CFA][CA] | [DFA][DF] [DFA]D [DFA]D | %22
 [CEG][CEG] [CEG][CEG] [CEG][EG] | [DG][DG] [DFG]D [DG] z | [CEFA][CFA] [CEFA][CFA] [CEFA][CFA] | %25
 [CFA][CFA] [CFA][CFA] [FA]C | [DG][=CDG] [DG]C D z | [=CFG]/G/=c/[df]/ z4 | z6 | z6 | z6 | %31
 [CEG]E EE E[CEG] | [CEG]C [CEG]E CC | [CFA]A FF FC | [FA] z [EFA] z F z | [CD]A CD CC | %36
 [=CDG][CG] [CDG][DF] D[CF] | [CEA] z C z z2 | [=CDG] z [CDF][CDG] z2 | [EGBc]c [EGBc]c [EGc]c | %40
 G2 G4 | [FABc][Ac] [Ac][ce] [ABce]F | [Ace] z z4 | [=CDG]D G[CDG] GD | [=CDF]2 D[DF] C[DF] | %45
 D z C z [CE] z | z6 | e z d z C z | z6 | z2 =F/ c3- c/ | z6 | z6 | z6 |] %53
V:3
 C,G, CG, EC | B,,G, B,G, E[G,B,] | A,,E, A,[E,A,] CA, | G,,D, F,2 z2 | C,G, CG, CG, | %5
 [B,,B,]G, B,G, B,[G,B,] | z [E,G,] z [E,G,] z [G,A,] | B,[C,F,] [F,A,][C,F,] [A,B,]F, | %8
 A,[C,F,] [F,A,B,][C,F,] A,F, | B,[D,G,] [G,B,][D,G,] B,G, | z [E,A,] z [E,A,] z A, | %11
 z [D,G,] z [D,G,] z [F,G,] | [B,,C,]G, z G, z G, | B,G, B,G, B,[G,B,] | %14
 z [E,G,] z [E,G,] z [G,A,] | [F,B,][C,F,] [F,A,][C,F,] [A,B,]F, | [E,F,][C,A,] F,[C,A,] A,[F,A,] | %17
 G,[D,B,] [F,G,][D,B,] B,[F,B,] | [C,B,]G, B,G, B,G, | C,G, D,G, E,G, | F,A, z2 z A, | %21
 [F,B,][F,B,] B,B, B,B, | z [G,B,] z B, z B, | B,[F,B,] B,B, B,B, | A, z A, z A, z | %25
 F,C, F,A, F,C, | G,D, G,G, G,D, | z6 | z6 | z6 | G,,2 z G,,, ^A,,,=C,, | G,G, G,G, G,G, | %32
 G,[C,G,] C,C, C,[C,G,] | [F,A,] z F, z2 A, | z6 | [D,A,] z z4 | G, z B, z A, z | %37
 [C,A,]A, z2 z A, | [G,,G,]D, F,G, [D,F,]D, | [C,G,]G, z C, z2 | [C,G,]2 z4 | [F,A,] z F, z F, z | %42
 [F,,F,] z z4 | G,[D,G,] G,G, G,D, | G,2 z4 | C,G, z G, z2 | CG, B,G, EB, | E,[E,A,] A,[E,A,] CA, | %48
 z6 | z2 [C,G,]4 | z6 | z6 | z6 |] %53
V:4
 z6 | z6 | z6 | z6 | z6 | z6 | A,, z A,, z A,, z | F,, z2 F,, F,, z | F,,F,, z4 | G,, z z4 | %10
 A,, z A,, z A,, z | G,, z F, z G,, z | z6 | B,, z z4 | A,, z A,, z G,, z | F,, z z4 | z6 | %17
 G,, z z4 | z4 G,, z | C,, z D,, z E,, z | [F,,,F,,] z z2 F,,, z | [B,,,B,,] z z2 z B,,, | %22
 [C,,C,] z z2 C,, z | [B,,,B,,] z z2 z [G,,,G,,] | [A,,,A,,] z z z [G,,,G,,] z | %25
 [F,,,F,,] z z2 z F,,, | [G,,,G,,] z z z D,, z | [G,,G,]6- | [G,,G,]6 | z6 | z6 | C,, z z2 z G,,, | %32
 C,,,G,,, C,, z E,,=F,, | F,, z z2 z C,, | F,,,C,, F,, z z2 | D,, z z2 z ^A,,, | %36
 G,,,D,,, [G,,,G,,] z B,,,=C,, | C,, z z2 z G,,, | G,,,D,,, G,,, z ^A,,,=C,, | C,, z z2 z G,,, | %40
 C,,2 z4 | F,, z z2 z C,, | [F,,F,] z z4 | G,,G,, G,,G,, D,,G,, | G,,2 z4 | C,G, z G, z2 | %46
 B,, z z4 | A,, z z4 | G,,D, F,G, z2 | z6 | z6 | z6 | z6 |] %53

